X: 5055
T: Bríd Óg Ní Mháille
R: waltz
M: 3/4
K: Cmajor
ED C2 CD|EF G2 E2-|E G A2 GE|DE C2 A,2|
AB c2 B2|AB AG E2-|E D E2 A2-|A B A4|
AB c2 B2|AB AG E2-|E E G2 E2|DE C2 A,2|
A,B, C2 A2|GA E2 D2-|D E D2 C2|B,2 C4|

